Papirus/64x64/mimetypes/image-svg+xml-compressed.svg

<?xml version="1.0" encoding="UTF-8" standalone="no"?>
<svg
   id="_图层_1"
   data-name="图层_1"
   version="1.1"
   viewBox="0 0 128 128"
   width="64"
   height="64"
   sodipodi:docname="image-svg+xml-compressed.svg"
   xml:space="preserve"
   inkscape:version="1.4 (e7c3feb100, 2024-10-09)"
   xmlns:inkscape="http://www.inkscape.org/namespaces/inkscape"
   xmlns:sodipodi="http://sodipodi.sourceforge.net/DTD/sodipodi-0.dtd"
   xmlns="http://www.w3.org/2000/svg"
   xmlns:svg="http://www.w3.org/2000/svg"><sodipodi:namedview
     id="namedview3"
     pagecolor="#505050"
     bordercolor="#eeeeee"
     borderopacity="1"
     inkscape:showpageshadow="0"
     inkscape:pageopacity="0"
     inkscape:pagecheckerboard="0"
     inkscape:deskcolor="#505050"
     inkscape:zoom="8.453125"
     inkscape:cx="31.94085"
     inkscape:cy="36.672828"
     inkscape:window-width="1920"
     inkscape:window-height="939"
     inkscape:window-x="0"
     inkscape:window-y="34"
     inkscape:window-maximized="1"
     inkscape:current-layer="_图层_1" /><!-- Generator: Adobe Illustrator 29.0.1, SVG Export Plug-In . SVG Version: 2.1.0 Build 192)  --><defs
     id="defs1"><style
       id="style1">
      .st0 {
        fill: #0071e9;
      }

      .st1 {
        fill: #fff;
      }

      .st2 {
        fill: #5aaaff;
        isolation: isolate;
        opacity: .5;
      }
    </style></defs><path
     class="st0"
     d="M18.2,0c-5.6,0-10.2,4.6-10.2,10.2v107.6c0,5.6,4.6,10.2,10.2,10.2h91.6c5.6,0,10.2-4.6,10.2-10.2V40.6L82.2,0H18.2Z"
     id="path1"
     style="fill:#e4e4e4;fill-opacity:1" /><path
     class="st2"
     d="M 83.028096,2.8391867 V 32.039187 c 0,3.2 2.124263,11.6 11.780006,11.6 H 119.5268 Z"
     id="path2"
     style="fill:#b6b6b6;stroke-width:0.982636;fill-opacity:1" /><path
     class="st2"
     d="M 82.565621,0.11090591 V 29.310906 c 0,3.2 2.2,11.6 12.2,11.6 h 25.599999 z"
     id="path2-3"
     style="opacity:1;isolation:isolate;fill:#e9e9e9;fill-opacity:1" /><g
     id="g3"
     transform="matrix(2,0,0,2,-1.4731978,10.709797)"><path
       style="opacity:0.4"
       d="M 29.5,19 C 28.669,19 28,19.669 28,20.5 V 22 H 16.5 a 2.5,2.5 0 0 0 -2,-1 2.5,2.5 0 0 0 -2.5,2.5 2.5,2.5 0 0 0 2.5,2.5 2.5,2.5 0 0 0 2,-1 h 5.693359 A 17.5,17.5 0 0 0 15.285156,36 H 13.5 C 12.669,36 12,36.669 12,37.5 v 6 c 0,0.831 0.669,1.5 1.5,1.5 h 6 c 0.831,0 1.5,-0.669 1.5,-1.5 v -6 C 21,36.669 20.331,36 19.5,36 H 18.259766 A 14.583334,14.583334 0 0 1 28,25.271484 V 26.5 c 0,0.831 0.669,1.5 1.5,1.5 h 6 C 36.331,28 37,27.331 37,26.5 V 25.269531 A 14.583334,14.583334 0 0 1 46.740234,36 H 45.5 C 44.669,36 44,36.669 44,37.5 v 6 c 0,0.831 0.669,1.5 1.5,1.5 h 6 c 0.831,0 1.5,-0.669 1.5,-1.5 v -6 C 53,36.669 52.331,36 51.5,36 H 49.716797 A 17.5,17.5 0 0 0 42.806641,25 H 48.5 a 2.5,2.5 0 0 0 2,1 2.5,2.5 0 0 0 2.5,-2.5 2.5,2.5 0 0 0 -2.5,-2.5 2.5,2.5 0 0 0 -2,1 H 37 V 20.5 C 37,19.669 36.331,19 35.5,19 Z"
       id="path2-9" /></g></svg>

<svg xmlns="http://www.w3.org/2000/svg" width="64" height="64" version="1">
 <rect style="opacity:0.2" width="57" height="51" x="4" y="7" rx="4.25" ry="4.25"/>
 <rect style="fill:#e4e4e4" width="57" height="51" x="4" y="6" rx="4.25" ry="4.25"/>
 <path style="opacity:0.4" d="M 29.5 19 C 28.669 19 28 19.669 28 20.5 L 28 22 L 16.5 22 A 2.5 2.5 0 0 0 14.5 21 A 2.5 2.5 0 0 0 12 23.5 A 2.5 2.5 0 0 0 14.5 26 A 2.5 2.5 0 0 0 16.5 25 L 22.193359 25 A 17.5 17.5 0 0 0 15.285156 36 L 13.5 36 C 12.669 36 12 36.669 12 37.5 L 12 43.5 C 12 44.331 12.669 45 13.5 45 L 19.5 45 C 20.331 45 21 44.331 21 43.5 L 21 37.5 C 21 36.669 20.331 36 19.5 36 L 18.259766 36 A 14.583334 14.583334 0 0 1 28 25.271484 L 28 26.5 C 28 27.331 28.669 28 29.5 28 L 35.5 28 C 36.331 28 37 27.331 37 26.5 L 37 25.269531 A 14.583334 14.583334 0 0 1 46.740234 36 L 45.5 36 C 44.669 36 44 36.669 44 37.5 L 44 43.5 C 44 44.331 44.669 45 45.5 45 L 51.5 45 C 52.331 45 53 44.331 53 43.5 L 53 37.5 C 53 36.669 52.331 36 51.5 36 L 49.716797 36 A 17.5 17.5 0 0 0 42.806641 25 L 48.5 25 A 2.5 2.5 0 0 0 50.5 26 A 2.5 2.5 0 0 0 53 23.5 A 2.5 2.5 0 0 0 50.5 21 A 2.5 2.5 0 0 0 48.5 22 L 37 22 L 37 20.5 C 37 19.669 36.331 19 35.5 19 L 29.5 19 z"/>
 <path style="fill:#ffffff;opacity:0.2" d="M 8.25 6 C 5.8955 6 4 7.8955 4 10.25 L 4 11.25 C 4 8.8955 5.8955 7 8.25 7 L 56.75 7 C 59.1045 7 61 8.8955 61 11.25 L 61 10.25 C 61 7.8955 59.1045 6 56.75 6 L 8.25 6 z"/>
</svg>
